src/assets/duotone/Setting3.svg

<svg width="24" height="24" viewBox="0 0 24 24"  xmlns="http://www.w3.org/2000/svg">
<path opacity="0.4" d="M16.19 2H7.81C4.17 2 2 4.17 2 7.81V16.18C2 19.83 4.17 22 7.81 22H16.18C19.82 22 21.99 19.83 21.99 16.19V7.81C22 4.17 19.83 2 16.19 2Z" />
<path d="M15.5801 19.2496C15.1701 19.2496 14.8301 18.9096 14.8301 18.4996V14.5996C14.8301 14.1896 15.1701 13.8496 15.5801 13.8496C15.9901 13.8496 16.3301 14.1896 16.3301 14.5996V18.4996C16.3301 18.9096 15.9901 19.2496 15.5801 19.2496Z" />
<path d="M15.5801 8.2C15.1701 8.2 14.8301 7.86 14.8301 7.45V5.5C14.8301 5.09 15.1701 4.75 15.5801 4.75C15.9901 4.75 16.3301 5.09 16.3301 5.5V7.45C16.3301 7.86 15.9901 8.2 15.5801 8.2Z" />
<path d="M8.41992 19.2498C8.00992 19.2498 7.66992 18.9098 7.66992 18.4998V16.5498C7.66992 16.1398 8.00992 15.7998 8.41992 15.7998C8.82992 15.7998 9.16992 16.1398 9.16992 16.5498V18.4998C9.16992 18.9098 8.83992 19.2498 8.41992 19.2498Z" />
<path d="M8.41992 10.15C8.00992 10.15 7.66992 9.81 7.66992 9.4V5.5C7.66992 5.09 8.00992 4.75 8.41992 4.75C8.82992 4.75 9.16992 5.09 9.16992 5.5V9.4C9.16992 9.81 8.83992 10.15 8.41992 10.15Z" />
<path d="M15.5801 7.33008C14.0801 7.33008 12.8501 8.55008 12.8501 10.0501C12.8501 11.5501 14.0701 12.7801 15.5801 12.7801C17.0801 12.7801 18.3001 11.5601 18.3001 10.0501C18.3001 8.54008 17.0801 7.33008 15.5801 7.33008Z" />
<path d="M8.4202 11.2305C6.9202 11.2305 5.7002 12.4505 5.7002 13.9605C5.7002 15.4705 6.9202 16.6805 8.4202 16.6805C9.9202 16.6805 11.1502 15.4605 11.1502 13.9605C11.1502 12.4605 9.9302 11.2305 8.4202 11.2305Z" />
</svg>

<?xml version="1.0" encoding="UTF-8"?>
<svg width="24" height="24" viewBox="0 0 24 24" xmlns="http://www.w3.org/2000/svg">
 <path d="M16.19 2H7.81C4.17 2 2 4.17 2 7.81V16.18C2 19.83 4.17 22 7.81 22H16.18C19.82 22 21.99 19.83 21.99 16.19V7.81C22 4.17 19.83 2 16.19 2Z" opacity=".4"/>
 <path d="m15.58 19.25c-0.41 0-0.75-0.34-0.75-0.75v-3.9c0-0.41 0.34-0.75 0.75-0.75s0.75 0.34 0.75 0.75v3.9c0 0.41-0.34 0.75-0.75 0.75z"/>
 <path d="m15.58 8.2c-0.41 0-0.75-0.34-0.75-0.75v-1.95c0-0.41 0.34-0.75 0.75-0.75s0.75 0.34 0.75 0.75v1.95c0 0.41-0.34 0.75-0.75 0.75z"/>
 <path d="m8.4199 19.25c-0.41 0-0.75-0.34-0.75-0.75v-1.95c0-0.41 0.34-0.75 0.75-0.75s0.75 0.34 0.75 0.75v1.95c0 0.41-0.33 0.75-0.75 0.75z"/>
 <path d="m8.4199 10.15c-0.41 0-0.75-0.34-0.75-0.75v-3.9c0-0.41 0.34-0.75 0.75-0.75s0.75 0.34 0.75 0.75v3.9c0 0.41-0.33 0.75-0.75 0.75z"/>
 <path d="m15.58 7.3301c-1.5 0-2.73 1.22-2.73 2.72 0 1.5 1.22 2.73 2.73 2.73 1.5 0 2.72-1.22 2.72-2.73 0-1.51-1.22-2.72-2.72-2.72z"/>
 <path d="m8.4202 11.23c-1.5 0-2.72 1.22-2.72 2.73s1.22 2.72 2.72 2.72 2.73-1.22 2.73-2.72-1.22-2.73-2.73-2.73z"/>
</svg>
